X: 1
T: OLD SPORT -- REEL
B: Ryan's Mammoth Collection of Fiddle Tunes
R: reel
M: 2/4
L: 1/16
Z: Contributed 20010907022211 by John Chambers jmchambers:rcn.net
K: A
(ucB) \
| .A2(EA) FAEA | cedc BdcB | .A2(EA) FAEA | cdBc AdcB |
| .A2(EA) FAEA | cedc B3g  |  agfe   fedc | BAGB A2 :|
|: (cd) \
| efeg aecA | GABc .d2(ed) | ceae fbba | gafg .e2(eg) |
| {g}agae .f2(fd) | .e2(ec) .d2(cd) | efed cedB | A2{g}a2A2 :|
